SVG_Azure_All/Search Service.svg

<?xml version="1.0" encoding="UTF-8" standalone="no"?>
<!-- Generated by Microsoft Visio, SVG Export Search Service.svg Page-1 -->

<svg
   xmlns:dc="http://purl.org/dc/elements/1.1/"
   xmlns:cc="http://creativecommons.org/ns#"
   xmlns:rdf="http://www.w3.org/1999/02/22-rdf-syntax-ns#"
   xmlns:svg="http://www.w3.org/2000/svg"
   xmlns="http://www.w3.org/2000/svg"
   xmlns:sodipodi="http://sodipodi.sourceforge.net/DTD/sodipodi-0.dtd"
   xmlns:inkscape="http://www.inkscape.org/namespaces/inkscape"
   width="0.78739709in"
   height="0.78739709in"
   viewBox="0 0 56.692498 56.692901"
   xml:space="preserve"
   class="st5"
   version="1.1"
   id="svg40"
   sodipodi:docname="Search Service.svg"
   style="font-size:12px;overflow:visible;color-interpolation-filters:sRGB;fill:none;fill-rule:evenodd;stroke-linecap:square;stroke-miterlimit:3"
   inkscape:version="0.92.5 (2060ec1f9f, 2020-04-08)"><metadata
   id="metadata44"><rdf:RDF><cc:Work
       rdf:about=""><dc:format>image/svg+xml</dc:format><dc:type
         rdf:resource="http://purl.org/dc/dcmitype/StillImage" /></cc:Work></rdf:RDF></metadata><sodipodi:namedview
   pagecolor="#ffffff"
   bordercolor="#666666"
   borderopacity="1"
   objecttolerance="10"
   gridtolerance="10"
   guidetolerance="10"
   inkscape:pageopacity="0"
   inkscape:pageshadow="2"
   inkscape:window-width="640"
   inkscape:window-height="480"
   id="namedview42"
   showgrid="false"
   inkscape:zoom="1.4193119"
   inkscape:cx="37.795128"
   inkscape:cy="37.78433"
   inkscape:window-x="0"
   inkscape:window-y="0"
   inkscape:window-maximized="0"
   inkscape:current-layer="svg40" />
	<style
   type="text/css"
   id="style2">
	<![CDATA[
		.st1 {fill:url(#grad0-6);stroke:none;stroke-linecap:butt;stroke-width:34}
		.st2 {fill:#f2f2f2;stroke:none;stroke-linecap:butt;stroke-width:34}
		.st3 {fill:#83b9f9;stroke:none;stroke-linecap:butt;stroke-width:34}
		.st4 {fill:none;stroke:none;stroke-linecap:butt;stroke-width:34}
		.st5 {fill:none;fill-rule:evenodd;font-size:12px;overflow:visible;stroke-linecap:square;stroke-miterlimit:3}
	]]>
	</style>

	<defs
   id="Patterns_And_Gradients">
		<linearGradient
   id="grad0-6"
   x1="0"
   y1="97.838826"
   x2="48.356683"
   y2="97.838826"
   gradientTransform="scale(1.1723302,0.85300199)"
   gradientUnits="userSpaceOnUse">
			<stop
   offset="0.18"
   stop-color="#5ea0ef"
   stop-opacity="1"
   id="stop4" />
			<stop
   offset="1"
   stop-color="#0078d4"
   stop-opacity="1"
   id="stop6" />
		</linearGradient>
	</defs>
	<g
   id="g38"
   transform="translate(-34.000441,-34.000001)">
		<title
   id="title10">Page-1</title>
		<g
   id="group1779-1"
   transform="translate(34,-34.0157)">
			<title
   id="title12">Search Service</title>
			<g
   id="group1780-2">
				<title
   id="title14">Azure-Search</title>
				<g
   id="shape1781-3"
   transform="translate(0,-8.13293)">
					<title
   id="title16">Sheet.1781</title>
					<path
   d="M 56.69,111.8 A 12.9764,12.9764 -180 0 0 45.64,99.2 16.2205,16.2205 -180 0 0 29.1,83.46 16.5354,16.5354 -180 0 0 13.35,94.45 15.3071,15.3071 -180 0 0 0,109.5 15.748,15.748 -180 0 0 15.97,124.68 h 27.24 a 2.45669,2.45669 -180 0 0 0.7,0 13.0079,13.0079 -180 0 0 12.78,-12.88 z"
   class="st1"
   id="path18"
   inkscape:connector-curvature="0"
   style="fill:url(#grad0-6);stroke:none;stroke-width:34;stroke-linecap:butt" />
				</g>
				<g
   id="shape1782-7"
   transform="translate(14.1015,-14.3937)">
					<title
   id="title21">Sheet.1782</title>
					<path
   d="m 24.73,103.17 a 9.66929,9.66929 -180 0 0 -17.67,2.67 9.95276,9.95276 -180 0 0 1.04,7.15 l -7.37,7.47 a 2.48819,2.48819 -180 0 0 0,3.52 2.45669,2.45669 -180 0 0 1.77,0.73 2.3937,2.3937 -180 0 0 1.76,-0.73 l 7.34,-7.43 a 9.88976,9.88976 -180 0 0 2.55,1.04 9.70079,9.70079 -180 0 0 10.58,-14.42 z m -1.7,6.61 a 6.80315,6.80315 0 0 1 -6.58,5.2 5.6378,5.6378 0 0 1 -1.61,-0.22 5.88976,5.88976 0 0 1 -2.2,-1.01 6.70866,6.70866 0 0 1 -1.77,-1.77 6.83465,6.83465 0 0 1 -0.97,-5.44 6.74016,6.74016 0 0 1 6.55,-5.23 7.27559,7.27559 0 0 1 1.64,0.19 6.86614,6.86614 0 0 1 4.15,3.15 6.70866,6.70866 0 0 1 0.79,5.13 z"
   class="st2"
   id="path23"
   inkscape:connector-curvature="0"
   style="fill:#f2f2f2;stroke:none;stroke-width:34;stroke-linecap:butt" />
				</g>
				<g
   id="shape1783-9"
   transform="translate(23.748,-24.126)">
					<title
   id="title26">Sheet.1783</title>
					<ellipse
   cx="6.7716498"
   cy="117.906"
   rx="6.7716498"
   ry="6.8031502"
   class="st3"
   id="ellipse28"
   style="fill:#83b9f9;stroke:none;stroke-width:34;stroke-linecap:butt" />
				</g>
				<g
   id="shape1784-11">
					<title
   id="title31">Sheet.1784</title>
					<rect
   x="0"
   y="68.015701"
   width="56.692902"
   height="56.692902"
   class="st4"
   id="rect33"
   style="fill:none;stroke:none;stroke-width:34;stroke-linecap:butt" />
				</g>
			</g>
		</g>
	</g>
</svg>

<?xml version="1.0" encoding="UTF-8" standalone="no"?>
<!DOCTYPE svg PUBLIC "-//W3C//DTD SVG 1.1//EN" "http://www.w3.org/Graphics/SVG/1.1/DTD/svg11.dtd">
<!-- Generated by Microsoft Visio, SVG Export Search Service.svg Page-1 -->
<svg xmlns="http://www.w3.org/2000/svg" xmlns:xlink="http://www.w3.org/1999/xlink" xmlns:ev="http://www.w3.org/2001/xml-events"
		width="1.73185in" height="1.73206in" viewBox="0 0 124.693 124.709" xml:space="preserve" color-interpolation-filters="sRGB"
		class="st5">
	<style type="text/css">
	<![CDATA[
		.st1 {fill:url(#grad0-6);stroke:none;stroke-linecap:butt;stroke-width:34}
		.st2 {fill:#f2f2f2;stroke:none;stroke-linecap:butt;stroke-width:34}
		.st3 {fill:#83b9f9;stroke:none;stroke-linecap:butt;stroke-width:34}
		.st4 {fill:none;stroke:none;stroke-linecap:butt;stroke-width:34}
		.st5 {fill:none;fill-rule:evenodd;font-size:12px;overflow:visible;stroke-linecap:square;stroke-miterlimit:3}
	]]>
	</style>

	<defs id="Patterns_And_Gradients">
		<linearGradient id="grad0-6" x1="0" y1="0" x2="1" y2="0" gradientTransform="rotate(90 0.5 0.5)">
			<stop offset="0.18" stop-color="#5ea0ef" stop-opacity="1"/>
			<stop offset="1" stop-color="#0078d4" stop-opacity="1"/>
		</linearGradient>
	</defs>
	<g>
		<title>Page-1</title>
		<g id="group1764-1" transform="translate(34,-34.0157)">
			<title>Search Service</title>
			<g id="group1765-2">
				<title>Azure-Search</title>
				<g id="shape1766-3" transform="translate(0,-8.13293)">
					<title>Sheet.1766</title>
					<path d="M56.69 111.8 A12.9764 12.9764 -180 0 0 45.64 99.2 A16.2205 16.2205 -180 0 0 29.1 83.46 A16.5354 16.5354
								 -180 0 0 13.35 94.45 A15.3071 15.3071 -180 0 0 -0 109.5 A15.748 15.748 -180 0 0 15.97 124.68 L43.21
								 124.68 A2.45669 2.45669 -180 0 0 43.91 124.68 A13.0079 13.0079 -180 0 0 56.69 111.8 Z" class="st1"/>
				</g>
				<g id="shape1767-7" transform="translate(14.1015,-14.3937)">
					<title>Sheet.1767</title>
					<path d="M24.73 103.17 A9.66929 9.66929 -180 0 0 7.06 105.84 A9.95276 9.95276 -180 0 0 8.1 112.99 L0.73 120.46
								 A2.48819 2.48819 -180 0 0 0.73 123.98 A2.45669 2.45669 -180 0 0 2.5 124.71 A2.3937 2.3937 -180 0
								 0 4.26 123.98 L11.6 116.55 A9.88976 9.88976 -180 0 0 14.15 117.59 A9.70079 9.70079 -180 0 0 24.73
								 103.17 ZM23.03 109.78 A6.80315 6.80315 0 0 1 16.45 114.98 A5.6378 5.6378 0 0 1 14.84 114.76 A5.88976
								 5.88976 0 0 1 12.64 113.75 A6.70866 6.70866 0 0 1 10.87 111.98 A6.83465 6.83465 0 0 1 9.9 106.54
								 A6.74016 6.74016 0 0 1 16.45 101.31 A7.27559 7.27559 0 0 1 18.09 101.5 A6.86614 6.86614 0 0 1 22.24
								 104.65 A6.70866 6.70866 0 0 1 23.03 109.78 Z" class="st2"/>
				</g>
				<g id="shape1768-9" transform="translate(23.748,-24.126)">
					<title>Sheet.1768</title>
					<ellipse cx="6.77165" cy="117.906" rx="6.77165" ry="6.80315" class="st3"/>
				</g>
				<g id="shape1769-11">
					<title>Sheet.1769</title>
					<rect x="0" y="68.0157" width="56.6929" height="56.6929" class="st4"/>
				</g>
			</g>
		</g>
	</g>
</svg>
